X: 21652
M: 6/8
L: 1/8
K: D
g |\
f2d dfd | afd de=f | e2=c cec | gec e^fg |\
f2d dfd | afd efg | fdf ece | dAF D2 g |
f2d dfd | afd de=f | e2=c cec | gec e^fg |\
afa geg | fdf edc | Adc cBc | dAF D2 |]


